src/lib/packages/icons/src/assets/line/angles-left-small.svg

<svg width="24" height="24" viewBox="0 0 24 24" fill="none" xmlns="http://www.w3.org/2000/svg">
<path d="M11.5301 8.53005L8.06008 12L11.5301 15.47C11.8231 15.763 11.8231 16.238 11.5301 16.531C11.3841 16.677 11.192 16.751 11 16.751C10.808 16.751 10.616 16.678 10.47 16.531L6.46999 12.531C6.17699 12.238 6.17699 11.763 6.46999 11.47L10.47 7.46999C10.763 7.17699 11.238 7.17699 11.531 7.46999C11.824 7.76299 11.8231 8.23705 11.5301 8.53005ZM14.0611 12L17.531 8.53005C17.824 8.23705 17.824 7.76202 17.531 7.46902C17.238 7.17602 16.763 7.17602 16.47 7.46902L12.47 11.469C12.177 11.762 12.177 12.2371 12.47 12.5301L16.47 16.5301C16.616 16.6761 16.808 16.75 17 16.75C17.192 16.75 17.3841 16.6771 17.5301 16.5301C17.8231 16.2371 17.8231 15.762 17.5301 15.469L14.0611 12Z" fill="currentColor"/>
</svg>

<svg xmlns="http://www.w3.org/2000/svg" width="24" height="24" fill="none"><path fill="currentColor" d="M11.53 8.53 8.06 12l3.47 3.47a.75.75 0 0 1-1.06 1.061l-4-4a.75.75 0 0 1 0-1.061l4-4a.75.75 0 1 1 1.06 1.06ZM14.061 12l3.47-3.47a.75.75 0 0 0-1.061-1.061l-4 4a.75.75 0 0 0 0 1.061l4 4a.748.748 0 0 0 1.06 0 .75.75 0 0 0 0-1.061L14.061 12Z"/></svg>
